X: 24218
T: Lord McDonald's
R: reel
M: 4/4
K: Gmajor
|:DGBG AGBG|DGBG AGEG|DGBG AGBG|DEDC B,G,G,2|
DGBG AGBG|DGBG AGEc|BAGF GFED|B,DGA BGG2:|
|:Bd~d2 dBGA|Bdef gedc|Bd~d2 dBGB|ABcA BGG2|
Bd~d2 dBGA|Bdef gedc|Bd~d2 gd~d2|cBAc BGG2:|
|:dgbg agbg|dgb/a/g ageg|dgbg agbg|dedc BGG2|
dgbg agbg|dgb/a/g agef|gedB AGEG|DEGA BG G2:|

